homepage/images/sort_conf.svg

<?xml version="1.0" encoding="UTF-8"?>
<svg xmlns="http://www.w3.org/2000/svg" xmlns:xlink="http://www.w3.org/1999/xlink" width="35" height="35" overflow="hidden">
  <defs>
    <clipPath id="clip0">
      <rect x="490" y="64" width="35" height="35"></rect>
    </clipPath>
    <clipPath id="clip1">
      <rect x="509" y="65" width="16" height="16"></rect>
    </clipPath>
    <clipPath id="clip2">
      <rect x="509" y="65" width="16" height="16"></rect>
    </clipPath>
    <clipPath id="clip3">
      <rect x="509" y="65" width="16" height="16"></rect>
    </clipPath>
    <clipPath id="clip4">
      <rect x="490" y="64" width="16" height="35"></rect>
    </clipPath>
    <clipPath id="clip5">
      <rect x="490" y="64" width="16" height="35"></rect>
    </clipPath>
    <clipPath id="clip6">
      <rect x="509" y="86" width="10" height="10"></rect>
    </clipPath>
    <clipPath id="clip7">
      <rect x="509" y="86" width="10" height="10"></rect>
    </clipPath>
    <clipPath id="clip8">
      <rect x="509" y="86" width="10" height="10"></rect>
    </clipPath>
  </defs>
  <g clip-path="url(#clip0)" transform="translate(-490 -64)">
    <g clip-path="url(#clip1)">
      <g clip-path="url(#clip2)">
        <g clip-path="url(#clip3)">
          <path d="M524.975 67.6463C524.934 67.5645 524.851 67.5137 524.756 67.5137 524.745 67.5137 524.734 67.5144 524.725 67.5153L524.108 67.5421 524.616 67.06 524.627 67.0538 524.763 66.8935 524.691 66.7521C524.649 66.6706 524.566 66.6199 524.473 66.6199 524.45 66.6199 524.43 66.623 524.413 66.6269L522.748 66.9304C522.718 66.8909 522.687 66.8521 522.655 66.8144 522.069 66.1143 521.279 65.7443 520.371 65.7443 520.144 65.7443 519.907 65.7675 519.666 65.8134 517.976 66.1354 517.151 67.4139 516.278 68.7675 515.111 70.5755 513.905 72.4451 510.443 72.4451 510.146 72.4451 509.833 72.431 509.512 72.4031 509.479 72.4003 509.448 72.3989 509.42 72.3989 509.239 72.3989 509.113 72.4574 509.045 72.5728 508.942 72.7473 509.042 72.9307 509.09 73.0189L509.097 73.0311C509.748 74.2327 510.733 75.2638 511.947 76.0129 513.033 76.6831 514.287 77.094 515.55 77.2206L515.55 79.686C515.55 80.0017 515.809 80.2556 516.124 80.2556L517.474 80.2556C517.511 80.2556 517.548 80.2513 517.585 80.2442 517.621 80.2516 517.659 80.2556 517.698 80.2556L519.047 80.2556C519.219 80.2556 519.387 80.1803 519.498 80.0516 519.597 79.9364 519.639 79.7944 519.617 79.65 519.557 79.2518 519.027 79.1103 518.552 79.1103 518.443 79.1103 518.241 79.1189 518.035 79.1715L518.186 77.0903C518.345 77.0599 518.504 77.0264 518.663 76.988 520.862 76.4572 522.079 75.0201 522.711 73.9078 523.491 72.5382 523.833 70.8739 523.651 69.3416 523.636 69.2134 523.617 69.0876 523.595 68.9642L524.876 67.9654C524.924 67.9369 524.962 67.8945 524.982 67.8441 525.008 67.78 525.005 67.7075 524.975 67.6463ZM517.142 79.1155C517.095 79.1123 517.035 79.1107 516.986 79.1107 516.878 79.1107 516.671 79.1192 516.466 79.1717L516.61 77.2602C516.784 77.2564 516.955 77.2475 517.142 77.2336L517.142 79.1155ZM515.446 74.4251C514.725 74.9312 513.95 74.9762 513.512 74.2175 513.026 74.3769 512.504 74.3205 512.282 73.8746 512.212 73.7347 512.318 73.6186 512.384 73.6152 514.835 73.491 517.059 71.5784 517.95 69.5621 518.015 69.4139 518.216 69.3954 518.255 69.5377 518.963 72.1233 518.124 75.2895 515.446 74.4251ZM520.342 69.1021C519.911 69.1021 519.562 68.7526 519.562 68.3214 519.562 67.8902 519.911 67.5407 520.342 67.5407 520.774 67.5407 521.123 67.8902 521.123 68.3214 521.123 68.7526 520.774 69.1021 520.342 69.1021Z"></path>
        </g>
      </g>
    </g>
    <g clip-path="url(#clip4)">
      <g clip-path="url(#clip5)">
        <path d="M26.6969 20.366 17.0298 20.366C16.7943 20.366 16.6028 20.556 16.6028 20.7926L16.6028 25.8736C16.6028 26.1088 16.7939 26.2999 17.0298 26.2999L26.6969 26.2999C26.9332 26.2999 27.1246 26.1099 27.1246 25.8736L27.1246 20.7919C27.1243 20.556 26.9332 20.366 26.6969 20.366Z" transform="matrix(1 0 0 1.00347 490 64)"></path>
        <path d="M22.4923 28.9005 17.0298 28.9005C16.7943 28.9005 16.6028 29.0913 16.6028 29.3279L16.6028 34.4082C16.6028 34.6441 16.7939 34.8352 17.0298 34.8352L22.4926 34.8352C22.7282 34.8352 22.9196 34.6452 22.9196 34.4082L22.9196 29.3272C22.9193 29.0913 22.7285 28.9005 22.4923 28.9005Z" transform="matrix(1 0 0 1.00347 490 64)"></path>
        <path d="M30.3893 10.2057 17.0302 10.2057C16.7946 10.2057 16.6032 10.3961 16.6032 10.632L16.6032 15.7123C16.6032 15.9478 16.7943 16.1393 17.0302 16.1393L30.3893 16.1393C30.6244 16.1393 30.8159 15.9482 30.8159 15.7123L30.8159 10.6317C30.8152 10.3961 30.6244 10.2057 30.3893 10.2057Z" transform="matrix(1 0 0 1.00347 490 64)"></path>
        <path d="M34.0798 0.0440728 17.0298 0.0440728C16.7943 0.0440728 16.6028 0.235175 16.6028 0.471073L16.6028 5.55136C16.6028 5.78762 16.7939 5.97836 17.0298 5.97836L34.0802 5.97836C34.3157 5.97836 34.5068 5.78798 34.5068 5.55136L34.5068 0.470712C34.5065 0.235175 34.3161 0.0440728 34.0798 0.0440728Z" transform="matrix(1 0 0 1.00347 490 64)"></path>
        <path d="M14.1549 23.6963 11.261 23.6963 11.261 0.722504C11.261 0.323321 10.9373 0 10.5385 0L4.71145 0C4.31263 0 3.98895 0.323321 3.98895 0.722504L3.98895 23.6963 1.09532 23.6963C0.816791 23.6963 0.563554 23.8564 0.443618 24.1074 0.323321 24.3582 0.35764 24.6555 0.531763 24.8722L7.06176 34.6094C7.19903 34.7806 7.40603 34.8789 7.62495 34.8789 7.84387 34.8789 8.05051 34.7806 8.18778 34.6094L14.7178 24.8722C14.8919 24.6551 14.9266 24.3582 14.8063 24.1074 14.6863 23.8567 14.4335 23.6963 14.1549 23.6963Z" transform="matrix(1 0 0 1.00347 490 64)"></path>
      </g>
    </g>
    <g clip-path="url(#clip6)">
      <g clip-path="url(#clip7)">
        <g clip-path="url(#clip8)">
          <path d="M518.984 87.6539C518.959 87.6028 518.907 87.571 518.848 87.571 518.841 87.571 518.834 87.5715 518.828 87.5721L518.442 87.5888 518.76 87.2875 518.767 87.2836 518.852 87.1834 518.807 87.0951C518.781 87.0441 518.729 87.0124 518.671 87.0124 518.656 87.0124 518.644 87.0144 518.633 87.0168L517.593 87.2065C517.574 87.1818 517.554 87.1576 517.534 87.134 517.168 86.6964 516.674 86.4652 516.107 86.4652 515.965 86.4652 515.817 86.4797 515.666 86.5083 514.61 86.7096 514.094 87.5087 513.549 88.3547 512.82 89.4847 512.066 90.6532 509.902 90.6532 509.716 90.6532 509.521 90.6444 509.32 90.627 509.3 90.6252 509.28 90.6243 509.262 90.6243 509.15 90.6243 509.071 90.6609 509.028 90.733 508.964 90.842 509.026 90.9567 509.056 91.0118L509.061 91.0195C509.467 91.7704 510.083 92.4148 510.842 92.8831 511.521 93.302 512.304 93.5587 513.094 93.6379L513.094 95.1787C513.094 95.3761 513.255 95.5347 513.453 95.5347L514.296 95.5347C514.319 95.5347 514.343 95.5321 514.365 95.5276 514.388 95.5323 514.412 95.5347 514.436 95.5347L515.28 95.5347C515.387 95.5347 515.492 95.4877 515.561 95.4072 515.623 95.3353 515.65 95.2465 515.636 95.1563 515.598 94.9074 515.267 94.819 514.97 94.819 514.902 94.819 514.776 94.8243 514.647 94.8572L514.741 93.5564C514.841 93.5374 514.94 93.5165 515.04 93.4925 516.414 93.1607 517.174 92.2625 517.57 91.5674 518.057 90.7114 518.271 89.6712 518.157 88.7135 518.147 88.6334 518.136 88.5547 518.122 88.4776L518.923 87.8533C518.953 87.8356 518.976 87.8091 518.989 87.7776 519.005 87.7375 519.003 87.6922 518.984 87.6539ZM514.089 94.8222C514.059 94.8202 514.022 94.8192 513.991 94.8192 513.924 94.8192 513.794 94.8245 513.666 94.8573L513.756 93.6626C513.865 93.6603 513.972 93.6547 514.089 93.646L514.089 94.8222ZM513.029 91.8907C512.578 92.207 512.093 92.2351 511.82 91.7609 511.517 91.8606 511.19 91.8253 511.051 91.5466 511.007 91.4592 511.074 91.3866 511.115 91.3845 512.647 91.3069 514.037 90.1115 514.594 88.8513 514.635 88.7587 514.76 88.7471 514.785 88.8361 515.227 90.452 514.702 92.431 513.029 91.8907ZM516.089 88.5638C515.82 88.5638 515.601 88.3454 515.601 88.0759 515.601 87.8064 515.82 87.5879 516.089 87.5879 516.358 87.5879 516.577 87.8064 516.577 88.0759 516.577 88.3454 516.358 88.5638 516.089 88.5638Z" fill="#000000" fill-opacity="0.50196"></path>
        </g>
      </g>
    </g>
  </g>
</svg>

<svg xmlns="http://www.w3.org/2000/svg" width="35" height="35" overflow="hidden">
    <defs>
        <clipPath id="a">
            <path d="M490 64h35v35h-35z"/>
        </clipPath>
        <clipPath id="b">
            <path d="M509 65h16v16h-16z"/>
        </clipPath>
        <clipPath id="c">
            <path d="M509 65h16v16h-16z"/>
        </clipPath>
        <clipPath id="d">
            <path d="M509 65h16v16h-16z"/>
        </clipPath>
        <clipPath id="e">
            <path d="M490 64h16v35h-16z"/>
        </clipPath>
        <clipPath id="f">
            <path d="M490 64h16v35h-16z"/>
        </clipPath>
        <clipPath id="g">
            <path d="M509 86h10v10h-10z"/>
        </clipPath>
        <clipPath id="h">
            <path d="M509 86h10v10h-10z"/>
        </clipPath>
        <clipPath id="i">
            <path d="M509 86h10v10h-10z"/>
        </clipPath>
    </defs>
    <g clip-path="url(#a)" transform="translate(-490 -64)">
        <g clip-path="url(#b)">
            <g clip-path="url(#c)">
                <g clip-path="url(#d)">
                    <path d="M524.975 67.646a.241.241 0 0 0-.25-.13l-.617.026.508-.482.011-.006.136-.16-.072-.142a.243.243 0 0 0-.278-.125l-1.665.303a2.743 2.743 0 0 0-.093-.116 2.896 2.896 0 0 0-2.284-1.07c-.227 0-.464.023-.705.07-1.69.321-2.515 1.6-3.388 2.954-1.167 1.808-2.373 3.677-5.835 3.677-.297 0-.61-.014-.931-.042a1.1 1.1 0 0 0-.092-.004c-.181 0-.307.058-.375.174-.103.174-.003.358.045.446l.007.012a8.014 8.014 0 0 0 2.85 2.982 8.527 8.527 0 0 0 3.603 1.208v2.465c0 .316.259.57.574.57h1.35a.589.589 0 0 0 .111-.012.562.562 0 0 0 .113.012h1.349a.6.6 0 0 0 .451-.204.494.494 0 0 0 .119-.402c-.06-.398-.59-.54-1.065-.54-.109 0-.311.009-.517.061l.151-2.08c.159-.031.318-.065.477-.103 2.199-.53 3.416-1.968 4.048-3.08.78-1.37 1.122-3.034.94-4.566a6.362 6.362 0 0 0-.056-.378l1.281-.999a.243.243 0 0 0 .099-.32Zm-7.833 11.47a2.197 2.197 0 0 0-.676.056l.144-1.912c.174-.004.345-.013.532-.026v1.882Zm-1.696-4.69c-.721.505-1.496.55-1.934-.209-.486.16-1.008.103-1.23-.342-.07-.14.036-.256.102-.26 2.451-.124 4.675-2.037 5.566-4.053.065-.148.266-.167.305-.024.708 2.585-.131 5.752-2.809 4.887Zm4.896-5.324a.78.78 0 1 1 0-1.56.78.78 0 0 1 0 1.56Z"/>
                </g>
            </g>
        </g>
        <g clip-path="url(#e)">
            <g clip-path="url(#f)">
                <path d="M516.697 84.437h-9.667a.427.427 0 0 0-.427.428v5.098c0 .236.19.428.427.428h9.667c.236 0 .428-.19.428-.428v-5.099a.427.427 0 0 0-.428-.427ZM512.492 93h-5.462a.428.428 0 0 0-.427.43v5.098c0 .236.19.428.427.428h5.463c.235 0 .427-.19.427-.428v-5.099a.428.428 0 0 0-.428-.428ZM520.39 74.241h-13.36a.427.427 0 0 0-.427.428v5.098c0 .236.191.428.427.428h13.36a.428.428 0 0 0 .426-.428v-5.098a.428.428 0 0 0-.427-.428ZM524.08 64.044h-17.05a.428.428 0 0 0-.427.429v5.098c0 .237.19.428.427.428h17.05a.427.427 0 0 0 .427-.428v-5.099a.428.428 0 0 0-.427-.428ZM504.155 87.779h-2.894V64.725c0-.4-.324-.725-.723-.725h-5.827a.724.724 0 0 0-.722.725v23.054h-2.894a.727.727 0 0 0-.564 1.18l6.53 9.77a.72.72 0 0 0 1.127 0l6.53-9.77a.727.727 0 0 0-.563-1.18Z"/>
            </g>
        </g>
        <g clip-path="url(#g)">
            <g clip-path="url(#h)">
                <g clip-path="url(#i)">
                    <path d="M518.984 87.654a.15.15 0 0 0-.156-.082l-.386.017.318-.302.007-.003.085-.1-.045-.089a.152.152 0 0 0-.174-.078l-1.04.19a1.982 1.982 0 0 0-.059-.073 1.81 1.81 0 0 0-1.427-.669c-.142 0-.29.015-.441.043-1.056.202-1.572 1-2.117 1.847-.729 1.13-1.483 2.298-3.647 2.298-.186 0-.381-.009-.582-.026a.659.659 0 0 0-.058-.003c-.112 0-.191.037-.234.109-.064.109-.002.224.028.279l.005.007a5.001 5.001 0 0 0 1.781 1.864 5.329 5.329 0 0 0 2.252.755v1.54c0 .198.161.357.359.357h.843a.351.351 0 0 0 .069-.007.356.356 0 0 0 .071.007h.844a.373.373 0 0 0 .281-.128.307.307 0 0 0 .075-.25c-.038-.25-.369-.338-.666-.338-.068 0-.194.005-.323.038l.094-1.3c.1-.02.199-.04.299-.064 1.374-.332 2.134-1.23 2.53-1.926a4.76 4.76 0 0 0 .587-2.853 4.312 4.312 0 0 0-.035-.236l.801-.625a.152.152 0 0 0 .061-.2Zm-4.895 7.168a1.376 1.376 0 0 0-.423.035l.09-1.194c.109-.003.216-.008.333-.017v1.176Zm-1.06-2.931c-.451.316-.936.344-1.209-.13-.303.1-.63.064-.769-.214-.044-.088.023-.16.064-.162 1.532-.078 2.922-1.273 3.479-2.534.041-.092.166-.104.191-.015.442 1.616-.083 3.595-1.756 3.055Zm3.06-3.327a.488.488 0 1 1 0-.977.488.488 0 0 1 0 .977Z" fill-opacity=".502"/>
                </g>
            </g>
        </g>
    </g>
</svg>
